icons/brick-cancel.svg

<svg fill="none" stroke="currentColor" stroke-linecap="round" stroke-linejoin="round" stroke-width="1.5" viewBox="0 0 24 24"><path d="M0 0h24v24H0z"/><path d="M4.103.603h4.183c.427 0 .837.233 1.139.646s.473.974.473 1.558v2.547c0 .184.053.36.148.49a.45.45 0 0 0 .358.203h2.595a.45.45 0 0 0 .359-.203.84.84 0 0 0 .148-.49V2.807c0-1.217.722-2.204 1.612-2.204h3.463c.89 0 1.612.987 1.612 2.204v2.551c0 .38.226.689.504.689h.202c.89 0 1.612.987 1.612 2.204V18.83c0 .585-.17 1.145-.472 1.558s-.712.646-1.14.646h-1.892m-4.896 0H2.549c-.428 0-.838-.232-1.14-.646-.302-.413-.472-.973-.472-1.558V8.251c0-1.217.722-2.204 1.612-2.204h1.062" transform="matrix(.9306 0 0 .6806 1.09 4.637)"/><path d="m2.679 3.331 17.985 17.985"/></svg>

<?xml version="1.0" encoding="UTF-8" standalone="no"?>
<!DOCTYPE svg PUBLIC "-//W3C//DTD SVG 1.1//EN" "http://www.w3.org/Graphics/SVG/1.1/DTD/svg11.dtd">
<svg width="100%" height="100%" viewBox="0 0 24 24" version="1.1" xmlns="http://www.w3.org/2000/svg" xmlns:xlink="http://www.w3.org/1999/xlink" xml:space="preserve" xmlns:serif="http://www.serif.com/" style="fill-rule:evenodd;clip-rule:evenodd;stroke-linecap:round;stroke-linejoin:round;stroke-miterlimit:1.5;">
    <rect id="brick-cancel" x="0" y="0" width="24" height="24" style="fill:none;"/>
    <g id="brick-cancel1" serif:id="brick-cancel">
        <g>
            <g transform="matrix(0.930599,0,0,0.680601,1.089716,4.636781)">
                <path d="M4.103,0.603L8.286,0.603C8.713,0.603 9.123,0.836 9.425,1.249C9.728,1.662 9.898,2.223 9.898,2.807C9.898,3.719 9.898,4.711 9.898,5.354C9.898,5.538 9.951,5.714 10.046,5.844C10.141,5.974 10.27,6.047 10.404,6.047C11.092,6.047 12.312,6.047 12.999,6.047C13.134,6.047 13.263,5.974 13.358,5.844C13.453,5.714 13.506,5.538 13.506,5.354C13.506,4.711 13.506,3.719 13.506,2.807C13.506,1.59 14.228,0.603 15.118,0.603C16.168,0.603 17.532,0.603 18.581,0.603C19.471,0.603 20.193,1.59 20.193,2.807C20.193,3.721 20.193,4.715 20.193,5.358C20.193,5.738 20.419,6.047 20.697,6.047C20.761,6.047 20.829,6.047 20.899,6.047C21.789,6.047 22.511,7.034 22.511,8.251C22.511,11.089 22.511,15.992 22.511,18.83C22.511,19.415 22.341,19.975 22.039,20.388C21.737,20.802 21.327,21.034 20.899,21.034C19.979,21.034 19.007,21.034 19.007,21.034M14.111,21.034L2.549,21.034C2.121,21.034 1.711,20.802 1.409,20.388C1.107,19.975 0.937,19.415 0.937,18.83C0.937,15.992 0.937,11.089 0.937,8.251C0.937,7.034 1.659,6.047 2.549,6.047C2.921,6.047 3.611,6.047 3.611,6.047" style="fill:none;stroke:white;stroke-width:1.84px;"/>
            </g>
            <g transform="matrix(1,0,0,1,-0.331334,0.331334)">
                <path d="M3.01,3L20.995,20.985" style="fill:none;stroke:white;stroke-width:1.5px;"/>
            </g>
        </g>
    </g>
</svg>
